X:1
T:Title
%%score ( 1 2 ) 3
L:1/8
Q:1/4=115
M:4/4
K:G
V:1 treble nm="Grand Piano, Unnamed-000"
V:2 treble 
V:3 bass nm="Choir Pad, Easter Angels"
V:1
 G3 E C2 E2 | G2 c2 G4 | [EG]3 [Ec] [Ge]2 [=Fd]2 | [Ec]8 | A3 E C2 E2 | A2 c2 A4 | %6
w: By~James~Cutler~Dunn~Parker~(1828\-1916) * * *||||||
 [CE]3 [CA] [Ec]2 [DB]2 | [CA]8 | [CA]3 [CD] [CB]2 [CA]2 | [B,G]2 [_B,E]2 [=B,D]4 | %10
w: ||||
 [CE]3 [DF] [DG]2 [CE]2 | [B,D]8 | [CD]3 [Cc] [CB]2 [CA]2 | G2 F2 [_B,E]4 | %14
w: ||||
 [B,D]2 [B,G]2 [CA]3 [B,G] | [B,G]8 |] %16
w: ||
V:2
 x8 | x8 | x8 | x8 | x8 | x8 | x8 | x8 | x8 | x8 | x8 | x8 | x8 | B,4 z4 | x8 | x8 |] %16
V:3
 G,3 E, C,2 E,2 | G,2 C2 G,4 | [G,C]3 [G,C] [G,C]2 [G,B,]2 | [C,C]8 | A,3 E, C,2 E,2 | A,2 C2 A,4 | %6
 [E,A,]3 [E,A,] [E,A,]2 [E,^G,]2 | [A,,A,]8 | [D,F,]3 [D,F,] [D,F,]2 [D,F,]2 | [G,,G,]4 [G,,G,]4 | %10
 [C,G,]3 [C,A,] [B,,G,]2 [C,G,]2 | [G,,G,]8 | [D,F,]3 [D,F,] [D,F,]2 [^D,F,]2 | [E,G,]4 [^C,G,]4 | %14
 [D,G,]2 [D,G,]2 [D,F,]3 [G,,G,] | [G,,G,]8 |] %16

